img/wires11-1.svg

<svg fill="none" height="34" viewBox="0 0 142 34" width="142" xmlns="http://www.w3.org/2000/svg"><path d="m141.473.375972h-19.077c-4.643 0-9.015 2.189908-11.797 5.909038l-15.7931 21.12099c-2.781 3.7191-7.1531 5.909-11.797 5.909h-42.1593c-6.6844 0-13.143-2.4189-18.1828-6.81l-7.1584-6.237c-5.2382-4.5639-2.0104-13.1822 4.9371-13.1822 7.0203 0 10.2076 8.7703 4.8253 13.2776l-8.2385 6.8993c-4.6687 3.9098-10.56408 6.0523-16.653636 6.0523" stroke="#fff500" stroke-linecap="round" stroke-linejoin="round" stroke-width=".736523"/></svg>

<svg width="142" height="34" viewBox="0 0 142 34" fill="none" xmlns="http://www.w3.org/2000/svg">
<path d="M141.473 0.375972L122.396 0.375972C117.753 0.375972 113.381 2.56588 110.599 6.28501L94.8059 27.406C92.0249 31.1251 87.6528 33.315 83.0089 33.315L40.8496 33.315C34.1652 33.315 27.7066 30.8961 22.6668 26.505L15.5084 20.268C10.2702 15.7041 13.498 7.0858 20.4455 7.0858V7.0858C27.4658 7.0858 30.6531 15.8561 25.2708 20.3634L17.0323 27.2627C12.3636 31.1725 6.46822 33.315 0.378664 33.315V33.315" stroke="#FFF500" stroke-width="0.736523" stroke-linecap="round" stroke-linejoin="round"/>
</svg>
